X:1
T:Title
%%score { ( 1 4 ) | ( 2 3 ) }
L:1/8
M:3/4
K:G
V:1 treble nm="Grand Piano"
V:4 treble 
V:2 bass 
V:3 bass 
V:1
 z2[Q:1/4=100] [CD]2 | [DG][DFA] B2 B2 | ed G2 [FA]2 | BB d2 BG | [DFA]4 [CDA][GB] | %5
 [EGc][EGc] [EGc]2 [DGB]A |[M:7/8] Ge d3 d2 |[M:3/4] [Fd][FA] [FB]2 [FA]2 |[M:2/4] G4 |[M:1/4] GA | %10
[M:3/4] B>B B2 GB | d>d d2 d2 | [DGe][B,Gd] [B,DG]2 [DGB]2 | [DFA]4 G-[GB] | %14
 [EGc]>[EGc] [EGc]2 [GB]A |[M:7/8] Be d3 d2 |[M:3/4] [Fd][CFA] [DFB]2 [CFA]2 |[M:2/4] [B,G]4 |] %18
V:2
 z2 D,2 | B,,D,[K:treble] [G,DG]2 [G,DG]2 | [G,CG][G,B,G] [G,B,D]2 [D,D]2 | z2 z2 .[DG]2 | %4
 D,4 z D | z2 z2 G,2[K:treble] |[M:7/8] [G,B,D][G,CG] [G,B,G]3 [G,B,G]2 | %7
[M:3/4][K:bass] [D,A,][D,C] [D,D]2 [D,C]2 |[M:2/4] [G,B,]4 |[M:1/4][K:treble] [G,D]-[G,CD] | %10
[M:3/4] [G,DG]>[G,DG] [G,DG]2 [B,D][DG] | [G,B,G]>[G,B,G] [G,B,G]2 [G,B,G]2 | C,G,, B,,2 G,,2 | %13
 D,4 z D | z2 z2 [D,D]2[K:treble] |[M:7/8] [G,CG][G,CG] [G,B,G]3 [G,B,G]2 | %16
[M:3/4][K:bass] [D,A,]D, D,2 D,2 |[M:2/4] G,,4 |] %18
V:3
 x4 | x2[K:treble] x4 | x6 | [G,DG][G,DG] [G,B,G]2 G,-[G,B,] | z2 z2 G,2 | %5
 C,C, C,2 z[K:treble] [CD] |[M:7/8] x7 |[M:3/4][K:bass] x6 |[M:2/4] x4 |[M:1/4][K:treble] B, z | %10
[M:3/4] z2 z2 G,2 | x6 | x6 | z2 z2 G,2 | C,>C, C,2 z[K:treble] F |[M:7/8] x7 |[M:3/4][K:bass] x6 | %17
[M:2/4] x4 |] %18
V:4
 x4 | x6 | x6 | x6 | x6 | x6 |[M:7/8] x7 |[M:3/4] x6 |[M:2/4] x4 |[M:1/4] x2 |[M:3/4] x6 | x6 | %12
 x6 | z2 z2 .[CA]2 | x6 |[M:7/8] x7 |[M:3/4] x6 |[M:2/4] x4 |] %18

